lib/icons/watchlist.svg

<svg width="16" height="17" viewBox="0 0 16 17" fill="none" xmlns="http://www.w3.org/2000/svg">
<path fill-rule="evenodd" clip-rule="evenodd" d="M14.9995 2.2761V6.94514H12.4487L12.4465 2.2761C12.4465 1.59644 12.9776 1.04084 13.6475 1.00175C14.3698 0.981103 14.9995 1.53472 14.9995 2.2761ZM13.6221 0.00175337H2.40026C1.10459 0.00175337 0.000976562 1.02618 0.000976562 2.3185V14.5878C0.000976562 15.1096 0.296635 15.5669 0.751681 15.8208C1.21943 16.0818 1.89224 16.0677 2.3217 15.7253L6.22582 12.6126L10.1552 15.7262C10.3813 15.9054 10.7028 15.9837 10.9861 15.9837C11.7697 15.9837 12.4487 15.3324 12.4487 14.538V7.94514H15.6995C15.8652 7.94514 15.9995 7.81082 15.9995 7.64514V2.2761C15.9995 0.99601 14.8991 -0.0539586 13.6221 0.00175337ZM11.8363 1.00175H2.40026C1.61453 1.00175 1.00098 1.61987 1.00098 2.3185V14.5878C1.00098 14.9526 1.44829 15.085 1.72202 14.9245L5.91316 11.583C6.09509 11.4379 6.35302 11.4376 6.53538 11.5821L10.7523 14.9235C11.0398 15.0875 11.4487 14.8845 11.4487 14.538L11.4465 2.2761C11.4465 1.80396 11.5902 1.36539 11.8363 1.00175Z" fill="#FFAD4D"/>
</svg>

<svg width="16" height="17" fill="none" xmlns="http://www.w3.org/2000/svg"><path fill-rule="evenodd" clip-rule="evenodd" d="M15 2.276v4.67h-2.551l-.002-4.67c0-.68.53-1.235 1.2-1.274C14.37.982 15 1.535 15 2.276ZM13.621.002H2.4C1.105.002.001 1.026.001 2.319v12.269c0 .522.296.979.75 1.233.468.26 1.141.247 1.57-.096l3.905-3.112 3.93 3.113c.225.18.547.258.83.258.784 0 1.463-.652 1.463-1.446V7.945h3.25a.3.3 0 0 0 .3-.3V2.276c0-1.28-1.1-2.33-2.377-2.274Zm-1.786 1H2.4c-.785 0-1.399.618-1.399 1.316v12.27c0 .365.447.497.721.337l4.191-3.342a.5.5 0 0 1 .622 0l4.217 3.34c.288.165.697-.039.697-.385l-.002-12.262c0-.472.143-.91.39-1.274Z" fill="#FFAD4D"/></svg>
